X:1
T:I was glad - Purcell
T:#
%%score { 1 | 2 } 3 4 5
L:1/8
Q:1/4=90
M:3/4
K:G
V:1 treble nm="Soprano 1" snm="S"
V:2 treble 
V:3 treble nm="Alto" snm="A"
V:4 treble-8 nm="Tenor" snm="T"
V:5 bass nm="Bass" snm="B"
V:1
"^I was glad""^Psalm 122:1,4-7""^Henry Purcell\n(1659-1695)""^for the Coronation of James II (1685)" z2 B2 B2 | %1
w: I was|
 d4 d2 | (e<d e>=f e>f | e7/2) e/ d2 | (d>e) c7/2 B/ | A2 A2 B2 | c6- | c2 B4 | (_B7/2 c/) (B>A) | %9
w: glad, was|glad * * * * *|* when they|said * un- to|me: we will|go|* in-|to * the *|
 d7/2 ^c/ d>e | =f3/2 (e/ d7/2) ^c/ | d6 | z6 | z6 | z6 | z6 | z6 | z2 d2 d2 | (e>d) (c>B) (A>G) | %19
w: house, in- to the|house of * the|Lord.||||||e'en the|tribes * of * the *|
 F6 | z2 z2 A2 | B2 B2 B2 | (d>e d3/2) (c/ B2) | e2 e2 e2 | (=f>e) (d>c) (B>A) | ^G4 B2 | %26
w: Lord,|for|thi- ther the|tribes * * go *|up, e'en the|tribes * of * the *|Lord: to|
 c7/2 B/ A2 | (F7/2 G/) A2 | ^G7/2 F/ E2 | B2 B2 e2 | c6 | c2 c2 =f2 | d7/2 c/ d>B | c7/2 d/ e2- | %34
w: tes- ti- fy|un\- * to|Is- ra- el,|and to give|thanks,|and to give|thanks un- to the|name, the name|
 e2 c7/2 B/ | c4 c2 | e4 ee | e4 z2 | =f4 fc | d2 c4 | B2 B2 B2 | d4 dd | d4 z2 | B4 BB | %44
w: * of the|Lord. For|there is the|seat,|there is the|seat of|judge- ment, for|there is the|seat,|there is the|
 c2 (B3 A) | A2 A4 | z2 d2 B2 | c2 A2 B2 | G2 c4 | B2 c2 A2 | B2 G2 c2 | A2 d2 B2 | c2 A2 B2 | %53
w: seat of *|judge- ment:|e'en the|seat of the|house of|Da- vid, the|seat of the|house, e'en the|seat of the|
 A6- | A2 (A3 G) | G2 G4 ||[M:4/4][Q:1/4=80] z2 B2 B4 | %57
w: house|* of *|Da- vid.|O pray,|
[M:4/4][Q:1/4=80][Q:1/4=80][Q:1/4=80][Q:1/4=80] z2 e2 (e B2) B/B/ | (B/c/d) (cB/)c/ B>B B2 | %59
w: O pray * for the|peace * * of * Je- ru- sa- lem:|
 z2 B>B e e2 e | (=fe)cB (c B2 A) | A8 ||[M:3/4] x6 |[M:3/4] ^c4 z2 | ^c4 cc | ^c2 d4 | ^c4 c2 | %67
w: they shall pros- per, shall|pros\- * per that love * *|thee.||Peace,|peace be with-|in thy|walls: and|
 d>d d2 ^d2 | e4 (=d^c) | ^A4 (B^c) | (d2 ^c3) B | B6 | ^d4 z2 | ^d4 dd | ^d2 e4 | ^d4 d2 | %76
w: plen- teous- ness with-|in, with\- *|in thy *|pa\- * la-|ces.|Peace,|peace be with-|in thy|walls: and|
 e>e e2 B2 | c4 ^c2 | d4 d2 | d4 ^c2 | d4 d2 | B>B B2 z2 | c>c c3 c | A3 A d2 | (cB) A3 G | G6 || %86
w: plen- teous- ness with-|in, with-|in thy|pa- la-|ces, and|plen- teous- ness,|plen- teous- ness with-|in, with- in|thy * pa- la-|ces.|
[M:4/4] d2 d2 d2 d2 | d2 d2 d2 dd |[M:4/4] d2 AB c3 d | B2 e2 ^c2 d2 | d3 ^c d4 | z8 | z8 | %93
w: Glo- ry, glo- ry,|glo- ry be to the|Fa- ther, and to the|Son: and to the|Ho- ly Ghost;|||
 z2 dd dAcB | GA (Bc) d2 (AB) | c2 cc cGBA | ^FF z2 z2 ee | eBd^c ^AF A2 | B3 ^c ^A2 B2 | %99
w: as it was in the be-|gin- ning, is * now, is *|now, as it was in the be-|gin- ning, as it|was in the be- gin- ning, is|now, and e- ver|
 (B2 ^A2) B2 z2 | z4 z edc | Bc d2- dG c2- | c2 B2 A2 G2 | ^F2 G2 Afed | ^cd e2- e (A d2- | %105
w: shall * be:|world with- out|end, A- men, * A- men,|* world with- out|end, A- men, world with- out|end, A- men, * A\- *|
 d2 ^c2) dd=cB | ABcA d2 z2 | z edc (Bc) d2 | GGFE (DE) (FG) | %109
w: * * men, world with- out|end, A- men, A- men,|world with- out end, * A-|men, world with- out end, * A\- *|
 AdcB A[Q:1/4=79]e[Q:1/4=78]d[Q:1/4=78]c |[Q:1/4=77] B[Q:1/4=76]c[Q:1/4=74] d4[Q:1/4=72] (c2- | %111
w: men, world with- out end, world with- out|end, A- men, A\-|
[Q:1/4=71] c2[Q:1/4=70] B[Q:1/4=69]A)[Q:1/4=69] B4 |] %112
w: * * * men.|
V:2
 z2 G2 G2 | B4 B2 | (c<B c>d c>d | c7/2) c/ B2 | (B>c) A7/2 G/ | F2 F2 G2 | A6- | A2 G4 | D4 A2 | %9
w: I was|glad, was|glad * * * * *|* when they|said * un- to|me: we will|go|* in-|to the|
 A7/2 G/ A2- | A3/2 (_B/ A7/2) A/ | A6 | z6 | z6 | z6 | z2 z2 D2 | A2 A2 A2 | (B>c B3/2) (A/ G2) | %18
w: house, the house|* of * the|Lord.||||For|thi- ther the|tribes * * go *|
 c2 c2 c2 | (c>B) (A>G) (F>E) | D2 d2 d2 | (e>d) (c>B) (A>G) | G6 | z2 c2 c2 | (d>c) (B>A) (^G>F) | %25
w: up, e'en the|tribes * of * the *|Lord, e'en the|tribes * of * the *|Lord,|e'en the|tribes * of * the *|
 E4 ^G2 | A7/2 =G/ (F>E) | E4 ^D2 | E7/2 E/ E2 | ^G2 G2 G2 | A6 | A2 A2 A2 | B7/2 c/ B>A | %33
w: Lord: to|tes- ti- fy *|un- to|Is- ra- el,|and to give|thanks,|and to give|thanks un- to the|
 G4- G>A | (_B>A) G7/2 G/ | G4 G2 | c4 cc | c4 z2 | c4 cc | _B3 (A G2) | G2 G2 G2 | B4 BB | A4 z2 | %43
w: name, * the|name * of the|Lord. For|there is the|seat,|there is the|seat of *|judge- ment, for|there is the|seat,|
 G4 GG | G3 (F G2) | F2 F4 | z2 B2 G2 | A2 F2 G2 | E2 A4 | A2 G3 G | =F2 E3 D | D2 B2 G2 | %52
w: there is the|seat of *|judge- ment:|e'en the|seat of the|house of|Da- vid, the|seat of the|house, e'en the|
 A2 F2 G2 | G6- | G4 F2 | G2 G4 ||[M:4/4] z2 ^G2 G4 |[M:4/4] z2 A2 ^G3 G/G/ | %58
w: seat of the|house|* of|Da- vid.|O pray,|O pray for the|
 (AB) (A^G/)A/ G>G G2 | z2 ^G>G A A2 A | A2 AA (A2 ^G2) | A8 ||[M:3/4] x6 |[M:3/4] A4 z2 | ^A4 AA | %65
w: peace * of * Je- ru- sa- lem:|they shall pros- per, shall|pros- per that love *|thee.||Peace,|peace be with-|
 ^A2 B4 | ^A4 A2 | B>B B2 B2 | B4 G2 | F4 (^G^A) | (B2 ^A3) B | B6 | B4 z2 | A4 AA | A2 G4 | %75
w: in thy|walls: and|plen- teous- ness with-|in, with-|in thy *|pa\- * la-|ces.|Peace,|peace be with-|in thy|
 B4 B2 | B>B B2 ^G2 | A4 A2 | A4 (A2- | A=G) G3 F | F4 F2 | G>G G2 z2 | A>A A3 A | F3 F G2 | %84
w: walls: and|plen- teous- ness with-|in, with-|in thy|* * pa- la-|ces, and|plen- teous- ness,|plen- teous- ness with-|in, with- in|
 G2 F3 G | G6 ||[M:4/4] B2 B2 B2 B2 | A2 A2 B2 BB |[M:4/4] B2 AA G2 A2 | A2 G2 G2 (FG) | %90
w: thy pa- la-|ces.|Glo- ry, glo- ry,|glo- ry be to the|Fa- ther, and to the|Son: and to the *|
 (A G2) A F4 | z8 | z8 | z8 | z4 z2 AA | AEG=F DDdd | dAcB GA (Bc) | F2 z2 z ^c d2- | %98
w: Ho\- * ly Ghost;||||as it|was in the be- gin- ning, as it|was in the be- gin- ning, is *|now, is now,|
 d^d e4 (=d^c) | (^c3 B) BBAG | FG A2- A (G2 F) | GcBA G3 (A | _BA) G2 z4 | z A=Bc dc B2 | %104
w: * and e- ver *|shall * be: world with- out|end, A- men, * A\- *|men, world with- out end, A\-|* * men,|world with- out end, A- men,|
 z4 z AGF | (EF) G2 FGAB | cB A2 z GAB | (cB) (A2- AG) B2 | z BAG FG A2- | A2 (G4 F2) | %110
w: world with- out|end, * A- men, world with- out|end, A- men, world with- out|end, * A\- * * men,|world with- out end, A- men,|* A\- *|
 GAG=F (EF) (GA | _BA G2) G4 |] %112
w: men, world with- out end, * A\- *|* * * men.|
V:3
 z2 D2 D2 | (G<F G>A G>A | G6- | G7/2) G/ =F2 | E2 E7/2 D/ | D4 z2 | z6 | z2 D2 E2 | =F4 E2 | %9
w: I was|glad, * * * * *||* when they|said un- to|me:||we will|go in-|
 (D>E =F>G) (F>E) | D3/2 (G/ =F7/2) E/ | D6 | z2 z2 A,2 | D2 D2 D2 | (F>G F3/2) (E/ D2) | G6 | z6 | %17
w: to * * * the *|house of * the|Lord.|For|thi- ther the|tribes * * go *|up,||
 z2 G2 G2 | (G>=F) (E>D) (C>B,) | A,2 A2 A2 | A2 (A>G) (F>E) | D6 | z6 | z2 A2 A2 | %24
w: e'en the|tribes * of * the *|Lord, e'en the|tribes of * the *|Lord,||e'en the|
 (A>G) (=F>E) (D>C) | B,4 E2 | E7/2 E/ E2 | (^D>^C B,7/2) B,/ | B,7/2 B,/ B,2 | E2 E2 E2 | E6 | %31
w: tribes * of * the *|Lord: to|tes- ti- fy|un\- * * to|Is- ra- el,|and to give|thanks,|
 =F2 F2 F2 | =F7/2 E/ F>D | E7/2 =F/ (G2- | G>=F) F7/2 G/ | E4 E2 | G4 GG | G4 z2 | =F4 FF | %39
w: and to give|thanks un- to the|name, the name|* * of the|Lord. For|there is the|seat,|there is the|
 =F2 (GF E2) | D2 D2 D2 | G4 GG | D4 z2 | D4 DD | E4 E2 | D2 D4 | z6 | z6 | z6 | z6 | z2 G2 E2 | %51
w: seat of * *|judge- ment, for|there is the|seat,|there is the|seat of|judge- ment:|||||e'en the|
 F2 D2 E2 | F2 D4 | (E2 =F>E D>F | E>G ^F>E D>C | B,3) (A, G,2) ||[M:4/4] z2 E2 E4 | %57
w: seat of the|house of|Da\- * * * *||* vid. *|O pray,|
[M:4/4] z2 E2 E3 E/E/ | E2 E>E E>E E2 | z2 E>E E E2 E | DE =F2 E4 | E8 ||[M:3/4] x6 | %63
w: O pray for the|peace of Je- ru- sa- lem:|they shall pros- per, shall|pros- per that love|thee.||
[M:3/4] E4 z2 | F4 EE | E2 F4 | F4 F2 | F>F F2 F2 | (F2 E2) E2 | E4 (DE) | (F2 E3) ^D | ^D6 | %72
w: Peace,|peace be with-|in thy|walls: and|plen- teous- ness with-|in, * with-|in thy *|pa\- * la-|ces.|
 F4 z2 | F4 FF | F2 E4 | F4 F2 | E>E E2 E2 | E4 E2 | (E2 DE) (F2- | FE) E3 D | D4 D2 | D>D D2 z2 | %82
w: Peace,|peace be with-|in thy|walls: and|plen- teous- ness with-|in, with-|in * * thy|* * pa- la-|ces, and|plen- teous- ness,|
 E>E E3 E | D3 D D2 | E2 (=FE) D2 | D6 ||[M:4/4] G2 G2 G2 G2 | G2 F2 G2 DE |[M:4/4] =F2 FF E2 D2 | %89
w: plen- teous- ness with-|in, with- in|thy pa\- * la-|ces.|Glo- ry, glo- ry,|glo- ry be to the|Fa- ther, and to the|
 D2 z E E2 (DE) | (F E2) F D4 | z4 z2 GG | GD=FE CD (E^F) | G3 G G=F F2- | F=F E2 D2 z2 | z8 | %96
w: Son: and to the *|Ho\- * ly Ghost;|as it|was in the be- gin- ning, is *|now, is now, and e\-|* ver shall be,||
 z2 FF FB,ED | B,>A, G,2 F,2 F2- | FFGG F2 F2 | (E3 ^D) D2 z2 | z E=DC B,CDD | E (D/C/) G2 z G=FE | %102
w: as it was in the be-|gin- ning is now, now,|* and e- ver, e- ver|shall * be:|world with- out end, A- men, A-|men, A\- * men, world with- out|
 D3 E =F2 z2 | z4 z AG^F | EFGG, A,2 B,2 | (CB,) A,2 A,4 | z GFE (DE) (FG) | A2 z2 z4 | %108
w: end, A- men,|world with- out|end, A- men, world with- out|end, * A- men,|world with- out end, * A\- *|men,|
 z DCB, A,B, C2- | CA,B,C D (C/B,/ A,D) | D2 z B, CD E2- | E2 (DC) D4 |] %112
w: world with- out end, A- men,|* world with- out end, A\- * * *|men, world with- out end,|* A\- * men.|
V:4
 z2 G2 B2 | G2 d2 d2 | c6- | c7/2 c/ G2 | G7/2 F/ E2 | A4 z2 | z2 F2 G2 | A2 B2 c2 | d4 ^c2 | %9
w: I was|glad, I was|glad|* when they|said un- to|me:|we will|go, we will|go in-|
 d4 (d>=c) | _B2 (c>B) (A>G) | F4 D2 | A2 A2 A2 | (B>c B3/2) (A/ G2) | d6 | z2 d2 d2 | %16
w: to the *|house of * the *|Lord. For|thi- ther the|tribes * * go *|up,|e'en the|
 (f>e) (d>c) (B>A) | G>A (G>=F E>D | C>D) E7/2 D/ | D6 | z6 | z2 z2 G2 | B2 B2 B2 | %23
w: tribes * of * the *|Lord, the tribes * * *|* * of the|Lord,||for|thi- ther the|
 (c>d c3/2) (B/ A2) | d6 | z2 z2 B2 | A7/2 A/ A2 | (B7/2 A/4G/4 F>)E | E7/2 F/ ^G2 | %29
w: tribes * * go *|up:|to|tes- ti- fy|un\- * * * to|Is- ra- el,|
 E2 (Bc/d/) (c>B) | A6 | A2 (B>c) d2 | d7/2 d/ G>G | G7/2 G/ c2- | c2 d7/2 e/ | c4 c2 | c4 cc | %37
w: and to * * give *|thanks,|and to * give|thanks un- to the|name, the name|* of the|Lord. For|there is the|
 e4 z2 | c3 d e2 | d2 G4 | G2 G2 B2 | B2 (cB) (AG) | A4 z2 | (Bc) (dc) (BA) | G2 E4 | A2 A4 | z6 | %47
w: seat,|there is the|seat of|judge- ment, for|there is * the *|seat,|there * is * the *|seat of|judge- ment:||
 z2 d2 B2 | c2 A2 d2 | d2 e2 c2 | d2 B2 A2 | (A2 F2) G2 | d2 d2 B2 | c2 A2 B2 | c2 d4 | d2 d4 || %56
w: e'en the|seat of the|house, e'en the|seat of the|house * of|Da- vid, the|seat of the|house of|Da- vid.|
[M:4/4] z2 B2 B4 |[M:4/4][K:treble-8] z2 (cA) B3 c/d/ | B2 c>A B>B B2 | z2 B>B B A2 A | %60
w: O pray,|O * pray for the|peace of Je- ru- sa- lem:|they shall pros- per, shall|
 Ac d2 (d3 ^c) | ^c8 ||[M:3/4] x6 |[M:3/4][K:treble-8] A4 z2 | ^c4 cc | ^c2 B4 | ^c4 c2 | %67
w: pros- per that love *|thee.||Peace,|peace be with-|in thy|walls: and|
 B>^c d2 (cB) | B4 ^c2 | ^c4 (BF) | F4 F2 | F6 | B4 z2 | B4 BB | B2 B4 | B4 B2 | B>B (Bc) (dB) | %77
w: plen- teous- ness with\- *|in, with-|in thy *|pa- la-|ces.|Peace,|peace be with-|in thy|walls: and|plen- teous- ness * with\- *|
 A4 A2 | (A2 B^c) d2 | (^cB A3) A | A4 A2 | G>A B2 z2 | A>B c3 c | c3 c B2 | (AG) (d2 c)B | B6 || %86
w: in, with-|in * * thy|pa\- * * la-|ces, and|plen- teous- ness,|plen- teous- ness with-|in, with- in|thy * pa\- * la-|ces.|
[M:4/4] B2 G2 d3 e | (=fe) d2 d2 dd |[M:4/4][K:treble-8] d2 dd G2 D2 | G2 B2 A2 A2 | A3 A A2 dd | %91
w: Glo- ry, glo- ry,|glo\- * ry be to the|Fa- ther, and to the|Son: and to the|Ho- ly Ghost; as it|
 dAcB GA (Bc) | d3 c AB c2- | cc B2 d2 A2 | cc (GA Bc d2) | e3 (d/c/) G3 G | AG F2 B4 | %97
w: was in the be- gin- ning is *|now, is now, and e\-|* ver shall be, and|e- ver shall * * * *|be, is * now, and|e- ver shall be,|
 z2 z e e2 (d^c) | B3 e ^c2 B2 | (^c2 F2) F2 z B | AGFF G2 z2 | z2 z G c (edc) | G3 B cded | %103
w: is now, and *|e- ver, e- ver|shall * be: world|with- out end, A- men,|A- men, A\- * *|men, world with- out end, A-|
 c2 B2 A2 z2 | z AB^c d=c B2 | E4 D4 | z4 z2 D2 | E2 F2 G2 =F2 | E4- EBAG | F2 G2 A3 A | %110
w: men, A- men,|world with- out end, A- men,|A- men,|world|with- out end, A-|men, * world with- out|end, A- men, world|
 G=FED E3 ^F | G8 |] %112
w: with- out end, A- men, A-|men.|
V:5
 z2 G,,2 G,,2 | G,2 B,2 G,2 | C4 C,2 | C,2 C,7/2 C,/ | C,2 C,7/2 C,/ | D,6 | z2 D,2 E,2 | F,2 G,4 | %8
w: I was|glad, I was|glad, was|glad when they|said un- to|me:|we will|go in-|
 G,4 A,2 | _B,4 =F,2 | G,2 A,2 A,,2 | D,6 | z6 | z6 | z2 D,2 D,2 | (E,>D,) (C,>B,,) (A,,>G,,) | %16
w: to the|house, the|house of the|Lord.|||e'en the|tribes * of * the *|
 F,,6 | z6 | z2 z2 A,,2 | D,2 D,2 D,2 | (F,>G, F,3/2) (E,/ D,2) | G,6 | z2 G,2 G,2 | %23
w: Lord,||for|thi- ther the|tribes * * go *|up,|e'en the|
 (C>B,) (A,>G,) (=F,>E,) | D,4 D,2 | E,4 E,2 | A,,7/2 B,,/ C,2 | (B,,>A,, B,,7/2) B,,/ | %28
w: tribes * of * the *|Lord, the|Lord: to|tes- ti- fy|un\- * * to|
 E,,7/2 E,,/ E,,2 | E,2 E,2 E,2 | A,6 | =F,2 F,2 D,2 | G,7/2 A,/ G,>=F, | E,7/2 (D,/ C,2) | %34
w: Is- ra- el,|and to give|thanks,|and to give|thanks un- to the|name, the *|
 G,2 G,,7/2 G,,/ | C,4 C,2 | C4 CC | C4 z2 | A,4 A,A, | _B,2 E,4 | G,2 G,2 G,2 | G,4 G,G, | %42
w: name of the|Lord. For|there is the|seat,|there is the|seat of|judge- ment, for|there is the|
 F,4 z2 | G,4 G,=F, | E,2 C,4 | D,6- | D,4 D,2 | z6 | z2 A,2 F,2 | G,2 E,2 =F,2 | D,2 E,2 C,2 | %51
w: seat,|there is the|seat of|judge\-|* ment:||e'en the|seat of the|house, of the|
 D,6- | D,6 | D,6 | D,4 D,2 | G,,2 G,,4 ||[M:4/4] z2 E,2 E,4 |[M:4/4] z2 C,2 E,3 E,/E,/ | %58
w: house|||* of|Da- vid.|O pray,|O pray for the|
 ^G,,2 A,,>A,, E,>E, E,2 | z2 E,>E, ^C, C,2 C, | D,2 D,D, E,4 | A,,8 ||[M:3/4] x6 |[M:3/4] A,4 z2 | %64
w: peace of Je- ru- sa- lem:|they shall pros- per, shall|pros- per that love|thee.||Peace,|
 F,4 F,F, | F,2 B,,4 | F,4 F,2 | B,>B, B,2 A,2 | G,4 E,2 | F,4 B,,2 | F,,4 F,,2 | B,,6 | B,4 z2 | %73
w: peace be with-|in thy|walls: and|plen- teous- ness with-|in, with-|in thy|pa- la-|ces.|Peace,|
 B,,4 B,,B,, | B,,2 E,,4 | B,,4 B,2 | ^G,>G, G,2 E,2 | A,4 =G,2 | (F,3 E,) D,2 | A,,4 A,,2 | %80
w: peace be with-|in thy|walls: and|plen- teous- ness with-|in, with-|in * thy|pa- la-|
 D,4 D,2 | G,>G, G,2 z2 | C,>C, C,3 C, | D,3 D, B,,2 | C,2 D,3 D, | G,,6 || %86
w: ces, and|plen- teous- ness,|plen- teous- ness with-|in, with- in|thy pa- la-|ces.|
[M:4/4] G,2 G,2 B,2 G,2 | D2 D,2 B,,2 A,,G,, |[M:4/4] D,2 D,D, E,2 F,2 | G,2 E,2 A,2 D,2 | %90
w: Glo- ry, glo- ry,|glo- ry be to the|Fa- ther, and to the|Son: and to the|
 A,,3 A,, D,4 | z8 | z8 | z8 | z2 G,G, G,D,=F,F, | C,D, (E,=F,) G,3 (F,/E,/) | D,2 ^D,2 E,2 G,,2 | %97
w: Ho- ly Ghost;||||as it was in the be-|gin- ning is * now, is *|now, and e- ver|
 (B,,2 E,,2) F,,3 F, | G,3 E, F,2 B,,2 | F,,4 B,,2 z2 | z8 | z A,G,=F, E,3 F, | G,3 G, A,B,CB, | %103
w: shall * be, is|now, and e- ver|shall be:||world with- out end, A-|men, world with- out end, A-|
 A,2 E,2 F,2 G,2 | A,2 G,2 F,2 G,,2 | A,,4 D,4 | C,4 B,,4 | A,,4 B,,4 | C,4 D,4- | D,8 | G,,8- | %111
w: men, world with- out|end, A- men, A-|men, world|with- out|end, A-|men, A\-||men.|
 G,,8 |] %112
w: |

